!! 00000] TT[WS
!!!OTL: Qia Suantai
!!!ARE: Asia, China,ÿShanxi Dingxiang
!! Ethnic Group: Han
!! WI, 157 (2)
!!!SCT: J0191
!!!YEM: Copyright 1995, estate of Helmut Schaffrath.
**kern
*ICvox
*Ivox
*M2/4
*k[f#c#g#d#]
*E:
{8.gg#
16gg#
8ff#
8ee
=1
8ff#
8gg#
8ff#
8gg#
=2
8ee
8dd#
8cc#
8ee
=3
2b}
=4
{8.b
16cc#
8ee
8ee
=5
8b
8cc#
8g#
8f#
=6
8e
16e
16f#
8g#
8f#
=7
2e}
==
!!!AGN: Xiaodiao. Qingge
!!!ONB: ESAC (Essen Associative Code) Database: CHINA
!!!AMT: simple duple
!!!AIN: vox
!!!EED: Helmut Schaffrath
!!!EEV: 1.0
*-
